icons/src/scalable/default/devices/drive-removable-media-usb-pendrive-symbolic.svg

<svg xmlns="http://www.w3.org/2000/svg" viewBox="0 0 16 16">
  <defs id="defs3051">
    <style type="text/css" id="current-color-scheme">
      .ColorScheme-Text {
        color:#4d4d4d;
      }
      </style>
  </defs>
 <path 
     style="fill:#bebebe;fill-opacity:1;stroke:none" 
     class="ColorScheme-Text"
     d="M 2.953125 0.5 C 2.6041342 0.5 2.2699282 0.63757868 2.0449219 0.87304688 C 1.8199156 1.1085151 1.7058541 1.4160686 1.6738281 1.7363281 L 1.6738281 1.7246094 L 0.38867188 11.861328 A 0.47594415 0.47594415 0 0 0 0.38671875 11.921875 L 0.38476562 11.921875 L 0.38671875 11.945312 A 0.47594415 0.47594415 0 0 0 0.39257812 12.003906 L 0.62304688 14.736328 C 0.67063652 15.127381 0.95379094 15.441406 1.4296875 15.441406 L 14.617188 15.441406 C 15.093083 15.441406 15.378192 15.127381 15.425781 14.736328 L 15.613281 11.939453 L 15.615234 11.921875 L 15.613281 11.921875 A 0.47594415 0.47594415 0 0 0 15.611328 11.861328 L 14.326172 1.7246094 A 0.47594415 0.47594415 0 0 0 14.320312 1.6914062 C 14.262056 1.4001182 14.157113 1.1147632 13.943359 0.88085938 C 13.729606 0.64695564 13.395866 0.5 13.046875 0.5 L 2.953125 0.5 z M 2.953125 1.4511719 L 13.046875 1.4511719 C 13.17378 1.4511719 13.195001 1.4718034 13.242188 1.5234375 C 13.288758 1.5743985 13.3477 1.6925336 13.384766 1.8730469 L 14.646484 11.818359 L 14.583984 11.921875 L 11.332031 11.921875 L 10.855469 11.921875 L 1.3476562 11.921875 L 1.34375 11.904297 L 2.6191406 1.8457031 A 0.47594415 0.47594415 0 0 0 2.6210938 1.8320312 C 2.6366556 1.6763944 2.6865299 1.5813197 2.734375 1.53125 C 2.7822201 1.4811803 2.8262192 1.4511719 2.953125 1.4511719 z M 8.0136719 2.7773438 C 7.966475 2.777419 7.9241436 2.796019 7.9023438 2.8261719 L 7.0859375 3.9550781 C 7.0656879 3.9831836 7.067054 4.0177835 7.0898438 4.0449219 C 7.1127379 4.0721524 7.1532062 4.087836 7.1972656 4.0878906 L 7.609375 4.0878906 L 7.6015625 7.3242188 L 6.3300781 6.7070312 L 6.3300781 6.2207031 C 6.5274433 6.1270037 6.6577423 5.9660389 6.6582031 5.7832031 C 6.6590833 5.4930817 6.3330662 5.2581708 5.9296875 5.2578125 C 5.5270763 5.2571707 5.2000873 5.491137 5.1992188 5.78125 C 5.198595 5.9642194 5.3284635 6.1265061 5.5253906 6.2207031 L 5.5253906 6.859375 C 5.5250785 6.9558116 5.5900365 7.0457531 5.7011719 7.0996094 L 7.5996094 8.0214844 L 7.5976562 9.0195312 C 7.3300309 9.1228048 7.1450912 9.3245993 7.1445312 9.5585938 C 7.1439171 9.8977579 7.5249767 10.173101 7.9960938 10.173828 C 8.4677456 10.174405 8.8507506 9.8998195 8.8515625 9.5605469 C 8.8522269 9.3265944 8.6675314 9.1255637 8.4003906 9.0214844 L 8.40625 7.1230469 L 10.214844 6.25 C 10.23655 6.2395041 10.257222 6.2278786 10.275391 6.2148438 C 10.350113 6.1612349 10.392427 6.089268 10.392578 6.0117188 L 10.394531 5.2460938 L 10.550781 5.2460938 C 10.593249 5.2460712 10.63401 5.2344511 10.664062 5.2128906 C 10.694091 5.1913469 10.710783 5.161449 10.710938 5.1308594 L 10.710938 4.328125 C 10.711206 4.2644864 10.641109 4.2129334 10.552734 4.2128906 L 9.4375 4.2109375 C 9.3950322 4.2109601 9.3542475 4.2225969 9.3242188 4.2441406 C 9.2941667 4.2657011 9.2775099 4.2955906 9.2773438 4.3261719 L 9.2753906 5.1289062 C 9.2750293 5.1924778 9.3472186 5.2441649 9.4355469 5.2441406 L 9.5898438 5.2441406 L 9.5898438 5.8554688 L 8.4082031 6.4257812 L 8.4121094 4.0898438 L 8.8242188 4.0898438 C 8.8683014 4.0898984 8.9088025 4.0739149 8.9316406 4.046875 C 8.954665 4.0197015 8.955743 3.9852622 8.9355469 3.9570312 L 8.125 2.8261719 C 8.1033094 2.7961072 8.0608102 2.7774608 8.0136719 2.7773438 z "
     />
</svg>

<svg version="1.1" viewBox="0 0 16 16" xmlns="http://www.w3.org/2000/svg">
 <path d="m2.9531 0.5c-0.34899 0-0.6832 0.13758-0.9082 0.37305-0.22501 0.23547-0.33907 0.54302-0.37109 0.86328v-0.011719l-1.2852 10.137a0.47594 0.47594 0 0 0-0.0019531 0.060547h-0.0019531l0.0019531 0.023437a0.47594 0.47594 0 0 0 0.0058594 0.058594l0.23047 2.7324c0.04759 0.39105 0.33074 0.70508 0.80664 0.70508h13.188c0.4759 0 0.761-0.31402 0.80859-0.70508l0.1875-2.7969 0.001953-0.017578h-0.001953a0.47594 0.47594 0 0 0-0.001953-0.060547l-1.2852-10.137a0.47594 0.47594 0 0 0-0.00586-0.033203c-0.058256-0.29129-0.1632-0.57664-0.37695-0.81055-0.21375-0.2339-0.54749-0.38086-0.89648-0.38086h-10.094zm0 0.95117h10.094c0.1269 0 0.14813 0.020632 0.19531 0.072266 0.04657 0.050961 0.10551 0.1691 0.14258 0.34961l1.2617 9.9453-0.0625 0.10352h-3.252-0.47656-9.5078l-0.0039062-0.017578 1.2754-10.059a0.47594 0.47594 0 0 0 0.0019532-0.013672c0.015562-0.15564 0.065436-0.25071 0.11328-0.30078s0.091844-0.080078 0.21875-0.080078zm5.0605 1.3262c-0.047197 7.52e-5 -0.089528 0.018675-0.11133 0.048828l-0.81641 1.1289c-0.02025 0.028106-0.018884 0.062705 0.0039063 0.089844 0.022894 0.02723 0.063362 0.042914 0.10742 0.042969h0.41211l-0.0078125 3.2363-1.2715-0.61719v-0.48633c0.19737-0.093699 0.32766-0.25466 0.32812-0.4375 8.802e-4 -0.29012-0.32514-0.52503-0.72852-0.52539-0.40261-6.418e-4 -0.7296 0.23332-0.73047 0.52344-6.238e-4 0.18297 0.12924 0.34526 0.32617 0.43945v0.63867c-3.121e-4 0.096437 0.064646 0.18638 0.17578 0.24023l1.8984 0.92188-0.0019532 0.99805c-0.26763 0.10327-0.45256 0.30507-0.45312 0.53906-6.141e-4 0.33916 0.38045 0.61451 0.85156 0.61523 0.47165 5.77e-4 0.85466-0.27401 0.85547-0.61328 6.644e-4 -0.23395-0.18403-0.43498-0.45117-0.53906l0.0058594-1.8984 1.8086-0.87305c0.021706-0.010496 0.042378-0.022121 0.060547-0.035156 0.074722-0.053609 0.11704-0.12558 0.11719-0.20312l0.001953-0.76562h0.15625c0.042468-2.26e-5 0.083229-0.011643 0.11328-0.033203 0.030029-0.021544 0.046721-0.051442 0.046876-0.082031v-0.80273c2.68e-4 -0.063639-0.069829-0.11519-0.1582-0.11523l-1.1152-0.0019531c-0.042468 2.26e-5 -0.083252 0.011659-0.11328 0.033203-0.030052 0.02156-0.046709 0.05145-0.046875 0.082031l-0.0019532 0.80273c-3.613e-4 0.063572 0.071828 0.11526 0.16016 0.11523h0.1543v0.61133l-1.1816 0.57031 0.0039063-2.3359h0.41211c0.044083 5.46e-5 0.084584-0.015929 0.10742-0.042969 0.023024-0.027174 0.024102-0.061613 0.0039063-0.089844l-0.81055-1.1309c-0.021691-0.030065-0.06419-0.048711-0.11133-0.048828z" fill="#bebebe"/>
</svg>
